src/components/common/icons/ship.svg

<svg height="39" viewBox="0 0 67 39" width="67" xmlns="http://www.w3.org/2000/svg"><g fill="#010202" fill-rule="evenodd"><path d="m62.2117429 30.836975-4.2985715-11.825125h-57.79514283l8.59390476 12.93825c-.25257143.15925-.49866666.3185-.73990476.47775-1.69190476 1.10175-3.02761905 1.97275-5.35419047 1.97275v4.324125c3.60238095 0 5.78-1.42025 7.7001905-2.673125 1.6546666-1.079 2.9612381-1.9305 5.1777143-1.9305 2.2132381 0 3.5198095.8515 5.1744761 1.9305 1.9201905 1.252875 4.0978096 2.673125 7.7001905 2.673125 3.6007619 0 5.778381-1.42025 7.7001905-2.673125 1.6530476-1.079 2.959619-1.9305 5.1744762-1.9305 2.2148571 0 3.5214286.8515 5.1760952 1.9305 1.9218096 1.252875 4.0994286 2.673125 7.7001905 2.673125 3.602381 0 5.78-1.42025 7.7001905-2.673125 1.6546666-1.079 2.9612381-1.9305 5.1760952-1.9305v-4.3225c-1.9541905 0-3.4858095.437125-4.7859047 1.038375m-13.4429524 1.590875c-1.8910476-1.233375-4.0314286-2.62925-7.5237143-2.62925-3.4906667 0-5.6310476 1.395875-7.5220952 2.62925-1.6919048 1.10175-3.0276191 1.97275-5.3525715 1.97275-2.3265714 0-3.6622857-.871-5.3541905-1.97275-1.8894285-1.233375-4.0314285-2.62925-7.5204761-2.62925-1.0507619 0-1.9768572.12675-2.8122858.338l-4.51876186-6.80225h46.73542856l3.5440952 9.75c-1.2660952.771875-2.485238 1.31625-4.3228571 1.31625-2.3249524 0-3.6622857-.871-5.3525714-1.97275"/><path d="m52.9592095 14.0235875v-4.24775-9.234875h-9.4406666l-6.1329524 9.234875h-20.7691429l-2.4609524 4.3225h38.8037143zm-7.1351428-9.160125h2.8284762v4.912375h-6.0908572z"/></g></svg>

<?xml version="1.0" encoding="UTF-8"?>
<svg width="67px" height="39px" viewBox="0 0 67 39" version="1.1" xmlns="http://www.w3.org/2000/svg" xmlns:xlink="http://www.w3.org/1999/xlink">
    <!-- Generator: Sketch 52.5 (67469) - http://www.bohemiancoding.com/sketch -->
    <title>Icons/.ship</title>
    <desc>Created with Sketch.</desc>
    <g id="Vapaaehtoisalusta-Layouts" stroke="none" stroke-width="1" fill="none" fill-rule="evenodd">
        <g id="HKI-Ikonit" transform="translate(-1119.000000, -252.000000)" fill="#010202">
            <g id="Icons/.ship" transform="translate(1119.000000, 252.000000)">
                <path d="M62.2117429,30.836975 L57.9131714,19.01185 L0.118028571,19.01185 L8.71193333,31.9501 C8.4593619,32.10935 8.21326667,32.2686 7.97202857,32.42785 C6.28012381,33.5296 4.94440952,34.4006 2.6178381,34.4006 L2.6178381,38.724725 C6.22021905,38.724725 8.3978381,37.304475 10.3180286,36.0516 C11.9726952,34.9726 13.2792667,34.1211 15.4957429,34.1211 C17.708981,34.1211 19.0155524,34.9726 20.670219,36.0516 C22.5904095,37.304475 24.7680286,38.724725 28.3704095,38.724725 C31.9711714,38.724725 34.1487905,37.304475 36.0706,36.0516 C37.7236476,34.9726 39.030219,34.1211 41.2450762,34.1211 C43.4599333,34.1211 44.7665048,34.9726 46.4211714,36.0516 C48.342981,37.304475 50.5206,38.724725 54.1213619,38.724725 C57.7237429,38.724725 59.9013619,37.304475 61.8215524,36.0516 C63.476219,34.9726 64.7827905,34.1211 66.9976476,34.1211 L66.9976476,29.7986 C65.0434571,29.7986 63.5118381,30.235725 62.2117429,30.836975 M48.7687905,32.42785 C46.8777429,31.194475 44.7373619,29.7986 41.2450762,29.7986 C37.7544095,29.7986 35.6140286,31.194475 33.722981,32.42785 C32.0310762,33.5296 30.6953619,34.4006 28.3704095,34.4006 C26.0438381,34.4006 24.7081238,33.5296 23.016219,32.42785 C21.1267905,31.194475 18.9847905,29.7986 15.4957429,29.7986 C14.444981,29.7986 13.5188857,29.92535 12.6834571,30.1366 L8.16469524,23.33435 L54.9001238,23.33435 L58.444219,33.08435 C57.1781238,33.856225 55.958981,34.4006 54.1213619,34.4006 C51.7964095,34.4006 50.4590762,33.5296 48.7687905,32.42785" id="Fill-73"></path>
                <path d="M52.9592095,14.0235875 L52.9592095,9.7758375 L52.9592095,0.5409625 L43.5185429,0.5409625 L37.3855905,9.7758375 L16.6164476,9.7758375 L14.1554952,14.0983375 L52.9592095,14.0983375 L52.9592095,14.0235875 Z M45.8240667,4.8634625 L48.6525429,4.8634625 L48.6525429,9.7758375 L42.5616857,9.7758375 L45.8240667,4.8634625 Z" id="Fill-74"></path>
            </g>
        </g>
    </g>
</svg>
